!!! OTL: Berkowitz251
!!! Chapter: 1
!!! Section: II
!!! Page: 58
!!! Mode: 
!!! Encoder: DJB
**kern
*staff1
*I"Piano
=1-
*clefG2
*k[b-]
*F:
*M3/4
4ff\
4cc\
4a/
=2
4dd\
4b-\
4g/
=3
8.f/L
16g/Jk
8a/L
8b-/J
8cc\L
8dd\J
=4
4f/
4e/
4cc\
=5
4ff\
4dd\
4bn\
=6
4cc\
4g/
4e/
=7
8.d/L
16e/Jk
8f/L
8g/J
8a/L
8bn/J
=8
4cc\
4r
8r
8cc\
=9
4g/
4e/
8.cc\L
16cc\Jk
=10
!!linebreak:original
4a/
4f/
8.ff\L
16ee\Jk
=11
8dd\L
8cc\J
8bn\L
8cc\J
8dd\L
8ee\J
=12
2cc\
16dd\LL
16cc\
16bn\
16cc\JJ
=13
4ff\
4cc\
4a/
=14
4ff\
4cc\
4g/
=15
8.cc\L
16cc-\Jk
8b-/L
8a/J
8b-/L
8g/J
=16
2.f/
==
*-
